X:1
T: Ramsgate Assembly
N:4 October 1999
C:
S:3 Times
A:
O:
R:
M:3/4
K:D
I:speed 120
%W: A
% voice 1 (1 lines, 29 notes)
K:D
M:3/4
L:1/16
D2 E2 |F4 F4 G4 |A8 d2 B2 |A4 A4 B2 G2 |F4 F4 D2 E2 |F4 F4 G4 |A8 d4 |e4 e2 d2 e2 f2 |d8 D2 E2 |
%W:
% voice 1 (1 lines, 26 notes)
F4 F4 G4 |A8 d2 B2 |A4 A4 B2 G2 |F4 F4 D2 E2 |F4 F4 G4 |A8 d4 |e4 e2 d2 e2 f2 |d8 A4 |
%W: B
% voice 1 (1 lines, 27 notes)
g4 g4 A4 |f4 f4 d4 |c4 c2 e2 d2 f2 |e4 e4 A4 |g4 g4 A4 |f4 f4 d4 |e4 c2 A2 B2 c2 |d8 A4 |
%W:
% voice 1 (1 lines, 28 notes)
g4 g4 A4 |f4 f4 d4 |c4 c2 e2 d2 f2 |e4 e4 A4 |g4 g4 A4 |f4 f4 d4 |e4 c2 A2 B2 c2 |d8 F2 G2 |
%W: C
% voice 1 (1 lines, 30 notes)
A4 A4 B4 |A4 A4 F2 A2 |G4 G4 E2 G2 |F4 D4 F2 G2 |A4 A4 B4 |A4 A4 d4 |d2 c2 B2 A2 B2 c2 |d8 F2 G2 |
%W:
% voice 1 (1 lines, 28 notes)
A4 A4 B4 |A4 A4 F2 A2 |G4 G4 E2 G2 |F4 D4 F2 G2 |A4 A4 B4 |A4 A4 d4 |d2 c2 B2 A2 B2 c2 |d8 ||
